X:1
T:Ghostly Tune from the Library
M:4/4
L:1/8
R:Waltz
K:Cmin
|: (3def g2 a | b2 g2 :| |
(3cde f2 e | d2 c2 | (3efg a2 g | f2 e2 :| |
(3cde f2 e | d2 c2 | (3efg a2 g | f2 e2 ||